X: 21
T:Dalaigh's
M:C|
L:1/8
R:Polka
K:G
eA BA | eA BA | eA BA | G2 GB/2d/2 | 
eA BA | eA BA | Ge dB |1 A2 g3/2f/2 :|2 A2 A2 |
|: ed ef | g3/2a/2 gf | ed eg | a2 ~g2 | ed ef |
 g3/2a/2 ge | dB gB |1 A2 A2 :|2 A2 g3/2f/2 |
